client/assets/images/header/social_icons/telegram.svg

<svg width="20" height="20" viewBox="0 0 20 20" fill="none" xmlns="http://www.w3.org/2000/svg">
<g id="icons8_telegram_app 1">
<path id="Vector" d="M16.9189 2.48696C16.6781 2.49744 16.4572 2.56669 16.263 2.64321C16.0837 2.71384 15.4396 2.98454 14.4141 3.4147C13.3885 3.84485 12.0296 4.41518 10.5811 5.0244C7.68404 6.24283 4.42853 7.61342 2.76042 8.31541C2.70313 8.33928 2.47049 8.4105 2.21354 8.60675C1.956 8.80346 1.66992 9.23037 1.66992 9.69725C1.66992 10.0739 1.85793 10.4575 2.08496 10.6771C2.31199 10.8967 2.54208 10.9994 2.73438 11.0758V11.0742C3.3844 11.3332 5.32558 12.1099 5.78776 12.2949C5.9517 12.7862 6.65549 14.8894 6.82292 15.4183H6.82129C6.93963 15.7926 7.05498 16.0366 7.21517 16.2402C7.29526 16.342 7.39087 16.4343 7.50814 16.5071C7.55313 16.5351 7.60295 16.5568 7.65299 16.5771C7.65997 16.5801 7.66716 16.5808 7.67415 16.5836L7.65462 16.5788C7.66913 16.5846 7.68215 16.5932 7.69694 16.5983C7.72104 16.6066 7.73774 16.6063 7.77018 16.6129C7.88435 16.6481 7.99832 16.6715 8.10384 16.6715C8.55685 16.6715 8.83463 16.4258 8.83463 16.4258L8.85254 16.4127L10.8089 14.7575L13.2048 16.9743C13.2485 17.0361 13.5913 17.5 14.3848 17.5C14.8582 17.5 15.2325 17.2656 15.472 17.0198C15.7115 16.774 15.8607 16.5225 15.9277 16.1816L15.9294 16.18C15.9828 15.9048 18.2764 4.388 18.2764 4.388L18.2715 4.40753C18.3429 4.08891 18.3639 3.78078 18.2796 3.46678C18.1953 3.15277 17.9677 2.84634 17.6937 2.68553C17.4196 2.52472 17.1597 2.47649 16.9189 2.48696ZM16.5902 4.31151C16.4995 4.76653 14.445 15.0882 14.318 15.7357L10.8577 12.5342L8.51888 14.5117L9.16667 11.9791C9.16667 11.9791 13.6355 7.4557 13.9046 7.19237C14.1213 6.98153 14.1667 6.90763 14.1667 6.83429C14.1667 6.73679 14.1165 6.66665 14.0007 6.66665C13.8965 6.66665 13.755 6.76647 13.68 6.81313C12.727 7.4073 8.66774 9.72055 6.67155 10.8561C6.55142 10.8079 4.74783 10.0837 3.77604 9.69562C5.5046 8.96812 8.46763 7.72149 11.2272 6.56085C12.6755 5.95174 14.034 5.3809 15.0586 4.95115C15.9235 4.5884 16.3746 4.40057 16.5902 4.31151ZM14.2936 15.8545H14.2952L14.2936 15.8594C14.2947 15.854 14.2928 15.8587 14.2936 15.8545Z" fill="white"/>
</g>
</svg>

<svg xmlns="http://www.w3.org/2000/svg" width="20" height="20" fill="none"><path d="M16.919 2.487c-.241.01-.462.08-.656.156l-1.849.771-3.833 1.61L2.76 8.315c-.057.024-.29.095-.547.291a1.47 1.47 0 0 0-.544 1.091c0 .377.188.76.415.98s.457.322.649.399v-.002l3.053 1.221 1.035 3.123h-.002c.118.374.234.618.394.822.08.102.176.194.293.267.045.028.095.05.145.07.007.003.014.004.021.006l-.02-.005c.015.006.028.014.042.019.024.008.041.008.073.015.114.035.228.059.334.059.453 0 .731-.246.731-.246l.018-.013 1.956-1.655 2.396 2.217c.044.062.386.526 1.18.526.473 0 .848-.234 1.087-.48s.389-.497.456-.838l.002-.002 2.347-11.792-.005.02c.071-.319.092-.627.008-.941a1.35 1.35 0 0 0-.586-.781c-.274-.161-.534-.209-.775-.199zm-.329 1.825l-2.272 11.424-3.46-3.201-2.339 1.977.648-2.533 4.738-4.787c.217-.211.262-.285.262-.358 0-.098-.05-.168-.166-.168-.104 0-.246.1-.321.146l-7.008 4.043-2.896-1.16 7.451-3.135 3.831-1.61 1.532-.64zm-2.297 11.543h.002l-.002.005z" fill="#fff"/></svg>
